public/assets/home_cta/wordpress.svg

<svg fill="none" height="56" viewBox="0 0 132 56" width="132" xmlns="http://www.w3.org/2000/svg" xmlns:xlink="http://www.w3.org/1999/xlink"><mask id="a" height="18" maskUnits="userSpaceOnUse" width="25" x="0" y="38"><path d="m0 38.3946h24.9506v17.0641h-24.9506z" fill="#fff"/></mask><mask id="b" height="35" maskUnits="userSpaceOnUse" width="35" x="48" y="0"><path d="m48.693 0h34.1265v34.1281h-34.1249z" fill="#fff"/></mask><path clip-rule="evenodd" d="m59.4186 53.6389h-.2668c-1.3655 0-1.5544-.3414-1.5544-2.0864v-8.2279h1.8212c3.9425 0 4.6633 2.8818 4.6633 5.119 0 2.3135-.7208 5.1953-4.6633 5.1953zm-16.0018-5.2715v-5.0428h1.5544c1.7053 0 2.4643 1.1749 2.4643 2.5405 0 1.3274-.759 2.5023-2.4643 2.5023h-1.556zm15.8875-6.1797h-6.7879v.7193c2.1229 0 2.4643.4557 2.4643 3.1486v4.8539c0 2.6913-.3414 3.1851-2.4643 3.1851-1.6306-.2286-2.731-1.1003-4.2473-2.7691l-1.7434-1.8958c2.3499-.4176 3.6027-1.8959 3.6027-3.5646 0-2.0848-1.7831-3.6774-5.1191-3.6774h-6.6735v.7193c2.1229 0 2.4643.4557 2.4643 3.1486v4.8539c0 2.6913-.3414 3.1851-2.4643 3.1851v.7193h7.5452v-.7193c-2.1229 0-2.4642-.4938-2.4642-3.1851v-1.3655h.6446l4.2077 5.2699h11.0352c5.4223 0 7.7722-2.8819 7.7722-6.3322 0-3.4502-2.3499-6.294-7.7722-6.294z" fill="#fff" fill-rule="evenodd"/><g mask="url(#a)"><path clip-rule="evenodd" d="m17.2149 49.7712 2.6167-7.7358c.759-2.2372.4176-2.8818-2.0102-2.8818v-.759h7.1292v.759c-2.388 0-2.958.5684-3.9059 3.3375l-4.322 12.9676h-.4922l-3.8711-11.8688-3.94249 11.8688h-.49222l-4.20925-12.9676c-.9098-2.7691-1.51634-3.3375-3.71544-3.3375v-.759h8.4185v.759c-2.23879 0-2.84533.5303-2.04826 2.8818l2.54048 7.7358 3.82978-11.3766h.7208z" fill="#fff" fill-rule="evenodd"/></g><path clip-rule="evenodd" d="m30.1063 42.8706c-3.4884 0-4.6999 3.147-4.6999 5.6113 0 2.5023 1.2115 5.6112 4.6999 5.6112 3.5281 0 4.7411-3.1089 4.7411-5.6112 0-2.4643-1.213-5.6113-4.7411-5.6113zm0 12.4372c-4.1696 0-7.5834-3.0724-7.5834-6.8275 0-3.7155 3.4138-6.7863 7.5834-6.7863 4.1711 0 7.5849 3.0724 7.5849 6.7879 0 3.7535-3.4138 6.8259-7.5849 6.8259zm45.5015-15.5477h-2.1594v6.5989h2.1594c2.1244 0 3.1105-1.4798 3.1105-3.2613 0-1.8197-.9861-3.3376-3.1105-3.3376zm.8351 14.2965v.7574h-8.6836v-.7574c2.5405 0 2.9962-.6446 2.9962-4.4379v-6.0653c0-3.7933-.4557-4.3982-2.9962-4.3982v-.7606h7.8485c3.9059 0 6.0685 2.0102 6.0685 4.7031 0 2.6166-2.1626 4.6633-6.0685 4.6633h-2.1594v1.8577c0 3.7933.4541 4.4379 2.9945 4.4379zm11.1861-5.689v-5.0429h1.5544c1.7069 0 2.4643 1.175 2.4643 2.5405 0 1.3274-.7574 2.5024-2.4643 2.5024zm20.097 2.8818-.191.6828c-.341 1.2511-.757 1.7068-3.45 1.7068h-.53c-1.972 0-2.314-.4557-2.314-3.147v-1.745c2.958 0 3.185.2652 3.185 2.2388h.721v-5.6525h-.721c0 1.9736-.227 2.2388-3.185 2.2388v-4.2474h2.085c2.693 0 3.11.4557 3.452 1.7069l.19.7193h.605l-.265-3.5631h-11.1478v.7193c2.1229 0 2.4643.4557 2.4643 3.1486v4.8539c0 2.4611-.2906 3.0819-1.9641 3.1708-1.591-.2429-2.6834-1.1114-4.1775-2.7548l-1.745-1.8958c2.3499-.4176 3.6027-1.8958 3.6027-3.5646 0-2.0848-1.7815-3.6774-5.1191-3.6774h-6.6735v.7193c2.1229 0 2.4643.4557 2.4643 3.1486v4.8539c0 2.6913-.3414 3.1851-2.4643 3.1851v.7193h7.5452v-.7193c-2.1228 0-2.4642-.4938-2.4642-3.1851v-1.3655h.6446l4.2077 5.2715h15.5857l.227-3.5662zm7.697 4.0584c-1.518 0-2.845-.7971-3.413-1.2893-.191.1906-.531.7574-.607 1.2893h-.721v-5.2334h.759c.303 2.5024 2.048 3.9822 4.286 3.9822 1.213 0 2.199-.6827 2.199-1.8212 0-.9844-.874-1.7434-2.428-2.4642l-2.161-1.0242c-1.516-.7208-2.655-1.972-2.655-3.6408 0-1.8196 1.707-3.3741 4.059-3.3741 1.251 0 2.311.4557 2.956.9861.191-.1525.38-.57.494-1.0242h.719v4.4745h-.795c-.265-1.7816-1.252-3.2614-3.262-3.2614-1.06 0-2.048.6066-2.048 1.5561 0 .9844.797 1.5163 2.618 2.3499l2.085 1.0241c1.82.8733 2.541 2.2753 2.541 3.4138 0 2.388-2.087 4.0568-4.626 4.0568m11.466 0c-1.518 0-2.845-.7971-3.414-1.2893-.19.1906-.53.7574-.606 1.2893h-.721v-5.2334h.759c.303 2.5024 2.048 3.9822 4.285 3.9822 1.213 0 2.199-.6827 2.199-1.8212 0-.9844-.873-1.7434-2.428-2.4642l-2.159-1.0242c-1.518-.7208-2.656-1.972-2.656-3.6408 0-1.8196 1.707-3.3741 4.058-3.3741 1.251 0 2.312.4557 2.957.9861.19-.1525.381-.57.492-1.0242h.722v4.4745h-.797c-.265-1.7816-1.251-3.2614-3.261-3.2614-1.061 0-2.048.6066-2.048 1.5561 0 .9844.797 1.5163 2.618 2.3499l2.085 1.0241c1.819.8733 2.54 2.2753 2.54 3.4138 0 2.388-2.086 4.0568-4.625 4.0568" fill="#fff" fill-rule="evenodd"/><g mask="url(#b)"><path clip-rule="evenodd" d="m65.757 0c-9.4251 0-17.064 7.6373-17.064 17.0641 0 9.4235 7.6389 17.064 17.064 17.064 9.4236 0 17.0625-7.6405 17.0625-17.064 0-9.4268-7.6389-17.0641-17.0625-17.0641zm0 1.02413c3.1958-.00657 6.3198.9477 8.9663 2.73895 1.7083 1.15443 3.1797 2.62528 4.3347 4.3331 1.7914 2.64712 2.7457 5.77162 2.739 8.96792.0068 3.1962-.9475 6.3208-2.739 8.9678-1.1551 1.7078-2.6265 3.1786-4.3347 4.3331-2.647 1.7916-5.7715 2.7459-8.9678 2.739-3.1958.0066-6.3197-.9477-8.9663-2.739-1.7083-1.155-3.1797-2.6264-4.3347-4.3347-1.7915-2.647-2.7458-5.7715-2.739-8.9678-.006-3.1952.9482-6.3185 2.739-8.96474 1.1549-1.70839 2.6263-3.17979 4.3347-4.33468 2.647-1.79155 5.7715-2.74584 8.9678-2.73895" fill="#fff" fill-rule="evenodd"/></g><path clip-rule="evenodd" d="m78.2355 10.2413c.0604.4541.0953.94.0953 1.4624 0 1.4433-.2699 3.0644-1.0813 5.0937l-4.3426 12.5578c2.1515-1.2503 3.937-3.0437 5.1778-5.2007s1.8934-4.602 1.8927-7.0904c0-2.4722-.632-4.7967-1.7419-6.8228zm-12.2292 8.066-4.2664 12.3976c2.8646.8446 5.9224.7651 8.7393-.2271-.0394-.0621-.0734-.1274-.1017-.1953zm9.3506-1.9609c0-1.7577-.632-2.9739-1.1718-3.9218-.7209-1.1718-1.3973-2.1626-1.3973-3.33441 0-1.30676.9908-2.5246 2.3881-2.5246.0635 0 .1222.00794.1842.0127-2.6188-2.40606-6.0468-3.73915-9.603-3.7345-2.3568-.0011-4.6768.58422-6.751 1.70321-2.0741 1.11899-3.8373 2.73649-5.1305 4.70673.3334.00953.6494.01588.9161.01588 1.4862 0 3.7901-.17942 3.7901-.17942.7653-.04446.8574 1.07971.0905 1.17181 0 0-.7717.0905-1.6275.1349l5.1778 15.4017 3.1121-9.3315-2.215-6.0702c-.7669-.0444-1.4925-.1349-1.4925-.1349-.7653-.0461-.6748-1.21627.0905-1.17181 0 0 2.3499.181 3.7472.181 1.4862 0 3.7885-.181 3.7885-.181.7669-.04446.8574 1.07971.0905 1.17181 0 0-.7717.0905-1.6275.1349l5.1397 15.2858 1.4671-4.6491c.651-2.0324 1.0321-3.4709 1.0321-4.6872zm-23.8202.7177c-.0004 2.6706.7511 5.2873 2.1686 7.5506s3.4437 4.0817 5.8466 5.247l-6.783-18.5851c-.8136 1.8209-1.2335 3.7931-1.2322 5.7875z" fill="#fff" fill-rule="evenodd"/></svg>

<svg width="132" height="56" viewBox="0 0 132 56" fill="none" xmlns="http://www.w3.org/2000/svg">
<path fill-rule="evenodd" clip-rule="evenodd" d="M59.4186 53.6389H59.1518C57.7863 53.6389 57.5974 53.2975 57.5974 51.5525V43.3246H59.4186C63.3611 43.3246 64.0819 46.2064 64.0819 48.4436C64.0819 50.7571 63.3611 53.6389 59.4186 53.6389ZM43.4168 48.3674V43.3246H44.9712C46.6765 43.3246 47.4355 44.4995 47.4355 45.8651C47.4355 47.1925 46.6765 48.3674 44.9712 48.3674H43.4152H43.4168ZM59.3043 42.1877H52.5164V42.907C54.6393 42.907 54.9807 43.3627 54.9807 46.0556V50.9095C54.9807 53.6008 54.6393 54.0946 52.5164 54.0946C50.8858 53.866 49.7854 52.9943 48.2691 51.3255L46.5257 49.4297C48.8756 49.0121 50.1284 47.5338 50.1284 45.8651C50.1284 43.7803 48.3453 42.1877 45.0093 42.1877H38.3358V42.907C40.4587 42.907 40.8001 43.3627 40.8001 46.0556V50.9095C40.8001 53.6008 40.4587 54.0946 38.3358 54.0946V54.8139H45.881V54.0946C43.7581 54.0946 43.4168 53.6008 43.4168 50.9095V49.544H44.0614L48.2691 54.8139H59.3043C64.7266 54.8139 67.0765 51.932 67.0765 48.4817C67.0765 45.0315 64.7266 42.1877 59.3043 42.1877V42.1877Z" fill="white"/>
<mask id="mask0_306_35" style="mask-type:alpha" maskUnits="userSpaceOnUse" x="0" y="38" width="25" height="18">
<path d="M0 38.3946H24.9506V55.4587H0V38.3946Z" fill="white"/>
</mask>
<g mask="url(#mask0_306_35)">
<path fill-rule="evenodd" clip-rule="evenodd" d="M17.2149 49.7712L19.8316 42.0354C20.5906 39.7982 20.2492 39.1536 17.8214 39.1536V38.3946H24.9506V39.1536C22.5626 39.1536 21.9926 39.722 21.0447 42.4911L16.7227 55.4587H16.2305L12.3594 43.5899L8.41691 55.4587H7.92469L3.71544 42.4911C2.80564 39.722 2.1991 39.1536 0 39.1536V38.3946H8.4185V39.1536C6.17971 39.1536 5.57317 39.6839 6.37024 42.0354L8.91072 49.7712L12.7405 38.3946H13.4613L17.2149 49.7712V49.7712Z" fill="white"/>
</g>
<path fill-rule="evenodd" clip-rule="evenodd" d="M30.1063 42.8706C26.6179 42.8706 25.4064 46.0176 25.4064 48.4819C25.4064 50.9842 26.6179 54.0931 30.1063 54.0931C33.6344 54.0931 34.8474 50.9842 34.8474 48.4819C34.8474 46.0176 33.6344 42.8706 30.1063 42.8706ZM30.1063 55.3078C25.9367 55.3078 22.5229 52.2354 22.5229 48.4803C22.5229 44.7648 25.9367 41.694 30.1063 41.694C34.2774 41.694 37.6912 44.7664 37.6912 48.4819C37.6912 52.2354 34.2774 55.3078 30.1063 55.3078ZM75.6078 39.7601H73.4484V46.359H75.6078C77.7322 46.359 78.7183 44.8792 78.7183 43.0977C78.7183 41.278 77.7322 39.7601 75.6078 39.7601ZM76.4429 54.0566V54.814H67.7593V54.0566C70.2998 54.0566 70.7555 53.412 70.7555 49.6187V43.5534C70.7555 39.7601 70.2998 39.1552 67.7593 39.1552V38.3946H75.6078C79.5137 38.3946 81.6763 40.4048 81.6763 43.0977C81.6763 45.7143 79.5137 47.761 75.6078 47.761H73.4484V49.6187C73.4484 53.412 73.9025 54.0566 76.4429 54.0566ZM87.629 48.3676V43.3247H89.1834C90.8903 43.3247 91.6477 44.4997 91.6477 45.8652C91.6477 47.1926 90.8903 48.3676 89.1834 48.3676H87.629V48.3676ZM107.726 51.2494L107.535 51.9322C107.194 53.1833 106.778 53.639 104.085 53.639H103.555C101.583 53.639 101.241 53.1833 101.241 50.492V48.747C104.199 48.747 104.426 49.0122 104.426 50.9858H105.147V45.3333H104.426C104.426 47.3069 104.199 47.5721 101.241 47.5721V43.3247H103.326C106.019 43.3247 106.436 43.7804 106.778 45.0316L106.968 45.7509H107.573L107.308 42.1878H96.1602V42.9071C98.2831 42.9071 98.6245 43.3628 98.6245 46.0557V50.9096C98.6245 53.3707 98.3339 53.9915 96.6604 54.0804C95.0694 53.8375 93.977 52.969 92.4829 51.3256L90.7379 49.4298C93.0878 49.0122 94.3406 47.534 94.3406 45.8652C94.3406 43.7804 92.5591 42.1878 89.2215 42.1878H82.548V42.9071C84.6709 42.9071 85.0123 43.3628 85.0123 46.0557V50.9096C85.0123 53.6009 84.6709 54.0947 82.548 54.0947V54.814H90.0932V54.0947C87.9704 54.0947 87.629 53.6009 87.629 50.9096V49.5441H88.2736L92.4813 54.8156H108.067L108.294 51.2494H107.726V51.2494ZM115.423 55.3078C113.905 55.3078 112.578 54.5107 112.01 54.0185C111.819 54.2091 111.479 54.7759 111.403 55.3078H110.682V50.0744H111.441C111.744 52.5768 113.489 54.0566 115.727 54.0566C116.94 54.0566 117.926 53.3739 117.926 52.2354C117.926 51.251 117.052 50.492 115.498 49.7712L113.337 48.747C111.821 48.0262 110.682 46.775 110.682 45.1062C110.682 43.2866 112.389 41.7321 114.741 41.7321C115.992 41.7321 117.052 42.1878 117.697 42.7182C117.888 42.5657 118.077 42.1482 118.191 41.694H118.91V46.1685H118.115C117.85 44.3869 116.863 42.9071 114.853 42.9071C113.793 42.9071 112.805 43.5137 112.805 44.4632C112.805 45.4476 113.602 45.9795 115.423 46.8131L117.508 47.8372C119.328 48.7105 120.049 50.1125 120.049 51.251C120.049 53.639 117.962 55.3078 115.423 55.3078M126.889 55.3078C125.371 55.3078 124.044 54.5107 123.475 54.0185C123.285 54.2091 122.945 54.7759 122.869 55.3078H122.148V50.0744H122.907C123.21 52.5768 124.955 54.0566 127.192 54.0566C128.405 54.0566 129.391 53.3739 129.391 52.2354C129.391 51.251 128.518 50.492 126.963 49.7712L124.804 48.747C123.286 48.0262 122.148 46.775 122.148 45.1062C122.148 43.2866 123.855 41.7321 126.206 41.7321C127.457 41.7321 128.518 42.1878 129.163 42.7182C129.353 42.5657 129.544 42.1482 129.655 41.694H130.377V46.1685H129.58C129.315 44.3869 128.329 42.9071 126.319 42.9071C125.258 42.9071 124.271 43.5137 124.271 44.4632C124.271 45.4476 125.068 45.9795 126.889 46.8131L128.974 47.8372C130.793 48.7105 131.514 50.1125 131.514 51.251C131.514 53.639 129.428 55.3078 126.889 55.3078" fill="white"/>
<mask id="mask1_306_35" style="mask-type:alpha" maskUnits="userSpaceOnUse" x="48" y="0" width="35" height="35">
<path d="M48.693 0H82.8195V34.1281H48.6946L48.693 0Z" fill="white"/>
</mask>
<g mask="url(#mask1_306_35)">
<path fill-rule="evenodd" clip-rule="evenodd" d="M65.757 0C56.3319 0 48.693 7.6373 48.693 17.0641C48.693 26.4876 56.3319 34.1281 65.757 34.1281C75.1806 34.1281 82.8195 26.4876 82.8195 17.0641C82.8195 7.6373 75.1806 0 65.757 0ZM65.757 1.02413C68.9528 1.01756 72.0768 1.97183 74.7233 3.76308C76.4316 4.91751 77.903 6.38836 79.058 8.09618C80.8494 10.7433 81.8037 13.8678 81.797 17.0641C81.8038 20.2603 80.8495 23.3849 79.058 26.0319C77.9029 27.7397 76.4315 29.2105 74.7233 30.365C72.0763 32.1566 68.9518 33.1109 65.7555 33.104C62.5597 33.1106 59.4358 32.1563 56.7892 30.365C55.0809 29.21 53.6095 27.7386 52.4545 26.0303C50.663 23.3833 49.7087 20.2588 49.7155 17.0625C49.7095 13.8673 50.6637 10.744 52.4545 8.09776C53.6094 6.38937 55.0808 4.91797 56.7892 3.76308C59.4362 1.97153 62.5607 1.01724 65.757 1.02413" fill="white"/>
</g>
<path fill-rule="evenodd" clip-rule="evenodd" d="M78.2355 10.2413C78.2959 10.6954 78.3308 11.1813 78.3308 11.7037C78.3308 13.147 78.0609 14.7681 77.2495 16.7974L72.9069 29.3552C75.0584 28.1049 76.8439 26.3115 78.0847 24.1545C79.3255 21.9975 79.9781 19.5525 79.9774 17.0641C79.9774 14.5919 79.3454 12.2674 78.2355 10.2413V10.2413ZM66.0063 18.3073L61.7399 30.7049C64.6045 31.5495 67.6623 31.47 70.4792 30.4778C70.4398 30.4157 70.4058 30.3504 70.3775 30.2825L66.0063 18.3073V18.3073ZM75.3569 16.3464C75.3569 14.5887 74.7249 13.3725 74.1851 12.4246C73.4642 11.2528 72.7878 10.262 72.7878 9.09019C72.7878 7.78343 73.7786 6.56559 75.1759 6.56559C75.2394 6.56559 75.2981 6.57353 75.3601 6.57829C72.7413 4.17223 69.3133 2.83914 65.7571 2.84379C63.4003 2.84269 61.0803 3.42801 59.0061 4.547C56.932 5.66599 55.1688 7.28349 53.8756 9.25373C54.209 9.26326 54.525 9.26961 54.7917 9.26961C56.2779 9.26961 58.5818 9.09019 58.5818 9.09019C59.3471 9.04573 59.4392 10.1699 58.6723 10.262C58.6723 10.262 57.9006 10.3525 57.0448 10.3969L62.2226 25.7986L65.3347 16.4671L63.1197 10.3969C62.3528 10.3525 61.6272 10.262 61.6272 10.262C60.8619 10.2159 60.9524 9.04573 61.7177 9.09019C61.7177 9.09019 64.0676 9.27119 65.4649 9.27119C66.9511 9.27119 69.2534 9.09019 69.2534 9.09019C70.0203 9.04573 70.1108 10.1699 69.3439 10.262C69.3439 10.262 68.5722 10.3525 67.7164 10.3969L72.8561 25.6827L74.3232 21.0336C74.9742 19.0012 75.3553 17.5627 75.3553 16.3464H75.3569ZM51.5367 17.0641C51.5363 19.7347 52.2878 22.3514 53.7053 24.6147C55.1228 26.878 57.149 28.6964 59.5519 29.8617L52.7689 11.2766C51.9553 13.0975 51.5354 15.0697 51.5367 17.0641V17.0641Z" fill="white"/>
</svg>
